X: 2552
T: Ballyhoura Mountains, The
R: polka
M: 2/4
K: Gmajor
|:B/4c/4d/|gd ed/c/|Bd de/f/|gd ed/c/|BG GB/4c/4d/|
gd ed/c/|Bd dB|ce d>c|BG G:|
|:A|Bc/B/ AG|EG GA|Bc/B/ AG|Bd d2|
Bc/B/ AG|EG GB/4c/4d/|gd ed/c/|BG G:|

